svg/capacitor_symbol.svg

<svg width="24" height="24" viewBox="0 0 24 24" xmlns="http://www.w3.org/2000/svg"><path d="M22 11h-7.4c.1-1.6.5-3.1 1.2-4.6L14 5.5c-2 4-2 8.9 0 12.9l1.8-.9c-.7-1.4-1.1-3-1.2-4.6H22V11zM9 11H2v2h7v6h2V5H9v6z"/></svg>

<svg width="24" height="24" viewBox="0 0 24 24" xmlns="http://www.w3.org/2000/svg">
<path d="M22 11H14.6C14.7 9.4 15.1 7.9 15.8 6.4L14 5.5C12 9.5 12 14.4 14 18.4L15.8 17.5C15.1 16.1 14.7 14.5 14.6 12.9H22V11Z"/>
<path d="M9 11H2V13H9V19H11V5H9V11Z"/>
</svg>
